libs/ui/packages/crypto-icons/src/svg/BTCH.svg

<svg width="24" height="24" viewBox="0 0 24 24" fill="none">
<path fill-rule="evenodd" clip-rule="evenodd" d="M10.2648 10.3918C10.0323 10.5433 9.76603 10.7038 9.49003 10.8718V12.3876C9.74053 12.2608 9.99853 12.1326 10.2648 12.0058V10.3911V10.3918ZM6.38952 13.1946C6.45993 13.3311 6.58124 13.4343 6.72722 13.4821C6.87319 13.5298 7.03209 13.5181 7.16953 13.4496L7.89402 13.0843C7.89852 12.4753 7.90153 12.0126 7.90153 11.8288V11.7801C7.28652 12.0861 6.82003 12.3208 6.64078 12.4101C6.50348 12.4808 6.39989 12.6032 6.35278 12.7503C6.30567 12.8974 6.31889 13.0572 6.38952 13.1946ZM10.4838 13.0408C10.4835 13.1168 10.4982 13.1922 10.5271 13.2625C10.556 13.3328 10.5985 13.3968 10.6521 13.4506C10.7058 13.5045 10.7695 13.5472 10.8398 13.5764C10.91 13.6056 10.9852 13.6206 11.0613 13.6206H11.068C11.2217 13.6204 11.3689 13.5592 11.4775 13.4505C11.586 13.3418 11.647 13.1944 11.647 13.0408V8.23856C11.647 8.15603 11.6293 8.07446 11.5952 7.99929C11.5612 7.92411 11.5115 7.85707 11.4494 7.80263C11.3874 7.74819 11.3145 7.70761 11.2355 7.68359C11.1565 7.65956 11.0734 7.65265 10.9915 7.66331C10.8518 7.68054 10.7232 7.74835 10.6301 7.85393C10.5369 7.9595 10.4857 8.09553 10.486 8.23631V10.6348C10.4838 11.4403 10.4838 12.2398 10.4838 13.0408Z" fill="#4700C2"/>
<path fill-rule="evenodd" clip-rule="evenodd" d="M18.742 9.32161C18.7053 9.04111 18.5193 8.88511 18.2365 8.81161C18.0115 8.75386 17.779 8.74261 17.542 8.74036C16.99 8.73811 16.4425 8.82736 15.8995 8.93311C15.115 9.08536 14.3395 9.28036 13.5768 9.51811C13.3465 9.58861 13.1193 9.66211 12.889 9.73561L12.8868 9.72661L12.928 9.69211C13.372 9.31261 13.813 8.93311 14.26 8.55811C15.2395 7.73011 16.123 6.82186 16.9435 5.86336C17.167 5.60311 17.3598 5.32486 17.4588 5.00761C17.6088 4.53136 17.4408 4.23511 16.9578 4.10161C16.753 4.05208 16.5428 4.02889 16.3323 4.03261C15.8718 4.03036 15.4173 4.10611 14.968 4.19761C14.4993 4.29511 13.8205 4.46761 13.3608 4.60711C12.625 4.83211 11.716 5.21911 10.9045 5.54761C10.4905 5.70886 10.0495 5.91586 9.637 6.07711L8.07775 6.71161C6.00775 7.60186 5.4055 6.96211 5.4055 6.96211C5.4055 6.96511 5.40625 6.96736 5.40775 6.96961C5.40382 6.96385 5.40079 6.95753 5.39875 6.95086C4.996 7.74436 5.33125 9.18586 7.65925 8.15611C8.02525 8.01361 8.39725 7.85911 8.761 7.71886C9.46225 7.44511 10.1568 7.10686 10.861 6.83611C11.3454 6.63684 11.8338 6.44731 12.3258 6.26761L12.7698 6.09511C13.225 5.94511 13.6803 5.79661 14.1445 5.68111C14.6508 5.55061 15.0925 5.47186 15.3595 5.50636C15.3865 5.50861 15.4143 5.51086 15.4398 5.51611C15.5613 5.53186 15.6258 5.59636 15.6145 5.68111C15.61 5.81236 15.3985 6.24736 13.4733 7.85011C13.333 7.97011 13.1928 8.09161 13.0525 8.21086C12.8365 8.39761 12.6273 8.58136 12.415 8.76586L12.238 8.92186L12.2358 8.92411L12.1533 8.99761C12.1468 9.00444 12.1398 9.01072 12.1323 9.01636L12.112 9.03436L11.9508 9.15661C11.9398 9.16718 11.9282 9.17719 11.9163 9.18661V11.2214C12.5973 10.9889 15.9108 9.88336 16.2678 10.2074C16.2955 10.2449 16.7163 10.5066 12.8635 13.1421C12.712 13.2569 12.565 13.3716 12.4135 13.4871L11.8563 13.9124C11.1595 14.4164 10.4673 14.9219 9.77125 15.4259L9.469 15.6441C9.4645 16.1939 9.46225 16.7204 9.46 17.2041L16.81 11.7801C17.2583 11.4024 17.6831 10.9976 18.082 10.5681C18.307 10.3274 18.5095 10.0716 18.643 9.77986C18.712 9.62761 18.763 9.48061 18.742 9.32236V9.32161ZM6.76675 17.6631C6.67202 17.7812 6.6237 17.9299 6.63088 18.0811C6.63806 18.2324 6.70025 18.3758 6.80575 18.4844C6.90203 18.5864 7.03028 18.6525 7.16926 18.6718C7.30824 18.691 7.44963 18.6622 7.57 18.5901L7.864 18.3741C7.86625 17.9324 7.8715 17.3946 7.87525 16.8141L6.88225 17.5506C6.83935 17.5833 6.80057 17.6211 6.76675 17.6631Z" fill="#4700C2"/>
<path fill-rule="evenodd" clip-rule="evenodd" d="M9.27626 9.21807C9.23978 9.08185 9.15496 8.96356 9.03765 8.8853C8.92033 8.80705 8.77854 8.77417 8.63876 8.79282C8.49903 8.81005 8.37045 8.87786 8.27731 8.98343C8.18418 9.089 8.13293 9.22503 8.13326 9.36582V11.7643C8.13326 12.2496 8.11226 14.6578 8.09426 16.6558C8.08976 17.2288 8.08451 17.7666 8.08226 18.2158C8.07776 18.7858 8.0755 19.2133 8.0755 19.3881C8.07521 19.4641 8.08993 19.5394 8.11882 19.6098C8.14771 19.6801 8.1902 19.744 8.24385 19.7979C8.29751 19.8517 8.36127 19.8945 8.43148 19.9236C8.5017 19.9528 8.57698 19.9678 8.65301 19.9678H8.65976C8.81351 19.9678 8.96098 19.9067 9.0697 19.798C9.17842 19.6893 9.2395 19.5418 9.2395 19.3881C9.2395 18.9861 9.244 18.2518 9.2485 17.3526C9.25075 16.8726 9.256 16.3431 9.2575 15.7933C9.274 13.2936 9.29651 10.3483 9.29501 9.36582C9.29449 9.31601 9.2882 9.26643 9.27626 9.21807Z" fill="#4700C2"/>
</svg>

<svg width="24" height="24" viewBox="0 0 24 24" fill="none"><path fill="#4700c2" fill-rule="evenodd" d="M10.265 10.392c-.233.151-.499.312-.775.48v1.516q.376-.191.775-.382zM6.39 13.195a.585.585 0 0 0 .78.255l.724-.366c.005-.609.008-1.071.008-1.255v-.049c-.615.306-1.082.54-1.261.63a.58.58 0 0 0-.251.785m4.094-.154a.577.577 0 0 0 .577.58h.007a.58.58 0 0 0 .579-.58V8.239a.58.58 0 0 0-.655-.576.576.576 0 0 0-.506.573v2.399q-.003 1.206-.002 2.406" clip-rule="evenodd"/><path fill="#4700c2" fill-rule="evenodd" d="M18.742 9.322c-.037-.28-.223-.437-.506-.51a3 3 0 0 0-.694-.072c-.552-.002-1.1.087-1.643.193a22 22 0 0 0-2.322.585q-.344.106-.688.218l-.002-.01.041-.034c.444-.38.885-.759 1.332-1.134a23.6 23.6 0 0 0 2.684-2.695c.223-.26.416-.538.515-.855.15-.477-.018-.773-.501-.906a2.5 2.5 0 0 0-.626-.07c-.46-.002-.915.074-1.364.166a21 21 0 0 0-1.607.41c-.736.224-1.645.611-2.456.94-.414.16-.855.368-1.268.53l-1.56.634c-2.07.89-2.671.25-2.671.25l.002.008-.01-.02c-.402.794-.067 2.236 2.261 1.206.366-.142.738-.297 1.102-.437.701-.274 1.396-.612 2.1-.883q.727-.3 1.465-.568l.444-.173c.455-.15.91-.298 1.375-.414.506-.13.947-.21 1.215-.175q.04.003.08.01c.121.016.186.08.175.165-.005.131-.216.566-2.142 2.17l-.42.36c-.217.187-.426.37-.638.555l-.177.156-.002.002-.083.074-.02.018-.021.018-.161.123-.035.03v2.034c.681-.232 3.995-1.338 4.352-1.014.027.038.448.3-3.405 2.935-.151.115-.298.23-.45.345l-.557.425c-.697.504-1.389 1.01-2.085 1.514l-.302.218c-.005.55-.007 1.076-.009 1.56l7.35-5.424q.673-.567 1.272-1.212c.225-.24.427-.496.561-.788.069-.152.12-.3.099-.458M6.767 17.663a.62.62 0 0 0 .039.821.616.616 0 0 0 .764.106l.294-.216c.002-.442.008-.98.011-1.56l-.993.737a.7.7 0 0 0-.115.112" clip-rule="evenodd"/><path fill="#4700c2" fill-rule="evenodd" d="M9.276 9.218a.58.58 0 0 0-.637-.425.576.576 0 0 0-.506.573v2.398c0 .486-.02 2.894-.039 4.892-.004.573-.01 1.11-.012 1.56-.004.57-.007.997-.007 1.172a.58.58 0 0 0 .578.58h.007a.58.58 0 0 0 .58-.58c0-.402.004-1.136.008-2.035.003-.48.008-1.01.01-1.56.016-2.5.039-5.445.037-6.427q0-.075-.019-.148" clip-rule="evenodd"/></svg>
